app/images/components/product/product-arrow.svg

<svg width="123" height="5" viewBox="0 0 123 5" fill="none" xmlns="http://www.w3.org/2000/svg">
<path d="M122.177 2.67678C122.274 2.57915 122.274 2.42085 122.177 2.32322L120.586 0.732233C120.488 0.634602 120.33 0.634602 120.232 0.732233C120.135 0.829864 120.135 0.988155 120.232 1.08579L121.646 2.5L120.232 3.91421C120.135 4.01184 120.135 4.17014 120.232 4.26777C120.33 4.3654 120.488 4.3654 120.586 4.26777L122.177 2.67678ZM122 2.25L1.09278e-08 2.24999L-1.09278e-08 2.74999L122 2.75L122 2.25Z" fill="#283849"/>
</svg>

<svg width="123" height="5" fill="none" xmlns="http://www.w3.org/2000/svg"><path d="M122.177 2.677a.251.251 0 000-.354l-1.591-1.59a.25.25 0 00-.354.353l1.414 1.414-1.414 1.414a.25.25 0 00.354.354l1.591-1.591zM122 2.25H0v.5h122v-.5z" fill="#283849"/></svg>
